images/icons.svg/Client-six.svg

<svg width="168" height="88" viewBox="0 0 168 88" fill="none" xmlns="http://www.w3.org/2000/svg">
<g id="Client 6">
<rect id="Rectangle 9" x="0.5" y="0.5" width="167" height="87" rx="3.5" stroke="#8E8F99"/>
<g id="Logo">
<g id="group">
<g id="Object">
<path id="Vector" d="M85.5294 43.4433C85.0853 42.8524 84.8729 42.1542 84.9233 41.4513V38.5632C84.9233 37.6779 85.1242 37.0051 85.5259 36.5448C85.9277 36.0845 86.6177 35.8554 87.596 35.8573C88.5153 35.8573 89.1679 36.0532 89.5537 36.4449C89.9746 36.9447 90.1794 37.556 90.1325 38.1725V38.8512H88.4881V38.1637C88.4939 37.9386 88.478 37.7136 88.4404 37.4909C88.4168 37.3386 88.3339 37.1977 88.2055 37.0913C88.0366 36.9766 87.8239 36.921 87.6096 36.9356C87.3844 36.9211 87.1609 36.9797 86.9832 37.1001C86.84 37.218 86.7445 37.3725 86.7108 37.5408C86.6636 37.7765 86.642 38.0155 86.6461 38.2547V41.7598C86.6202 42.0979 86.6927 42.4363 86.8572 42.744C86.939 42.8482 87.0526 42.9307 87.1854 42.9826C87.3182 43.0344 87.465 43.0536 87.6096 43.0378C87.8203 43.0528 88.0294 42.9958 88.1919 42.8792C88.3258 42.7644 88.412 42.6147 88.437 42.4532C88.4754 42.2206 88.4925 41.9858 88.4881 41.751V41.04H90.1325V41.6893C90.1787 42.3319 89.9789 42.9699 89.564 43.505C89.186 43.9339 88.5425 44.1484 87.596 44.1484C86.6495 44.1484 85.9345 43.9193 85.5294 43.4433Z" fill="#8E8F99"/>
<path id="Vector_2" d="M92.3764 43.4727C91.961 43.0232 91.7533 42.368 91.7533 41.5013V38.4633C91.7533 37.6054 91.961 36.9561 92.3764 36.5154C92.7917 36.0747 93.4863 35.8554 94.46 35.8573C95.4269 35.8573 96.1181 36.0767 96.5334 36.5154C96.9488 36.9561 97.1599 37.6054 97.1599 38.4633V41.5013C97.1599 42.3592 96.9488 43.0173 96.5266 43.4697C96.1045 43.9222 95.4167 44.1484 94.46 44.1484C93.5033 44.1484 92.7951 43.9193 92.3764 43.4727ZM95.2261 42.744C95.3748 42.4625 95.4426 42.154 95.4235 41.845V38.1255C95.4426 37.8224 95.376 37.5199 95.2295 37.2441C95.146 37.1377 95.0297 37.0538 94.8936 37.0019C94.7575 36.9499 94.6073 36.932 94.46 36.9503C94.3123 36.9325 94.1617 36.9506 94.0252 37.0025C93.8887 37.0544 93.7717 37.138 93.6872 37.2441C93.5374 37.5191 93.4696 37.8221 93.4897 38.1255V41.8626C93.469 42.1718 93.5368 42.4805 93.6872 42.7617C93.783 42.8564 93.9013 42.9324 94.034 42.9845C94.1667 43.0365 94.3108 43.0634 94.4566 43.0634C94.6024 43.0634 94.7465 43.0365 94.8792 42.9845C95.0119 42.9324 95.1302 42.8564 95.2261 42.7617V42.744Z" fill="#8E8F99"/>
<path id="Vector_3" d="M99.1378 35.946H100.908L102.24 41.5512L103.601 35.946H105.324L105.498 44.0365H104.224L104.088 38.4137L102.774 44.0365H101.753L100.391 38.3931L100.265 44.0365H98.9778L99.1378 35.946Z" fill="#8E8F99"/>
<path id="Vector_4" d="M107.483 35.946H110.241C111.83 35.946 112.624 36.7118 112.624 38.2433C112.624 39.7102 111.788 40.4427 110.115 40.4407H109.175V44.0365H107.473L107.483 35.946ZM109.839 39.4037C110.007 39.4221 110.178 39.4088 110.34 39.3647C110.501 39.3206 110.65 39.2467 110.775 39.1481C110.97 38.8749 111.057 38.554 111.02 38.2345C111.029 37.9877 111.002 37.7409 110.939 37.5001C110.914 37.4196 110.872 37.3442 110.813 37.2781C110.755 37.212 110.682 37.1567 110.598 37.1152C110.362 37.0174 110.101 36.973 109.839 36.986H109.178V39.4037H109.839Z" fill="#8E8F99"/>
<path id="Vector_5" d="M115.079 35.946H116.907L118.783 44.0365H117.196L116.825 42.171H115.194L114.813 44.0365H113.203L115.079 35.946ZM116.641 41.2339L116.005 37.8379L115.368 41.2339H116.641Z" fill="#8E8F99"/>
<path id="Vector_6" d="M120.298 35.946H121.49L123.771 40.5612V35.946H125.184V44.0365H124.05L121.755 39.2186V44.0365H120.295L120.298 35.946Z" fill="#8E8F99"/>
<path id="Vector_7" d="M128.493 40.9516L126.597 35.9573H128.194L129.351 39.1654L130.437 35.9573H132L130.127 40.9516V44.0363H128.493V40.9516Z" fill="#8E8F99"/>
<path id="Vector_8" d="M88.1579 47.5736V47.9967H86.7688V51.2842H86.1866V47.9967H84.7907V47.5736H88.1579Z" fill="#8E8F99"/>
<path id="Vector_9" d="M92.5124 51.2844H92.0629C92.0173 51.2869 91.9723 51.2743 91.937 51.2492C91.903 51.2277 91.8769 51.1981 91.8621 51.164L91.4603 50.2827H89.5332L89.1315 51.164C89.12 51.2009 89.0991 51.235 89.0702 51.2639C89.0346 51.2885 88.9898 51.301 88.9442 51.2991H88.4948L90.1971 47.5887H90.7896L92.5124 51.2844ZM89.6932 49.9066H91.3003L90.6193 48.3966C90.5691 48.2824 90.527 48.1657 90.4933 48.047C90.4695 48.1175 90.4491 48.1851 90.4287 48.2439L90.3674 48.3996L89.6932 49.9066Z" fill="#8E8F99"/>
<path id="Vector_10" d="M95.4472 50.9202C95.5538 50.925 95.6606 50.925 95.7673 50.9202C95.8593 50.912 95.9504 50.8972 96.0396 50.8761C96.123 50.8584 96.205 50.8359 96.2848 50.8085C96.3597 50.7821 96.4346 50.7498 96.5129 50.7174V49.883H95.8319C95.8151 49.8838 95.7983 49.8816 95.7824 49.8766C95.7666 49.8715 95.7522 49.8637 95.74 49.8536C95.7288 49.8453 95.72 49.8349 95.7141 49.8232C95.7082 49.8115 95.7054 49.7988 95.706 49.786V49.501H97.027V50.9231C96.9192 50.9897 96.8053 51.0486 96.6865 51.0994C96.5651 51.1511 96.4387 51.1934 96.3086 51.2257C96.1694 51.2611 96.027 51.2866 95.883 51.3021C95.718 51.3179 95.552 51.3258 95.3859 51.3256C95.0923 51.3278 94.801 51.2809 94.5279 51.1875C94.2731 51.0991 94.0415 50.9672 93.847 50.7997C93.6575 50.6305 93.5082 50.4309 93.4078 50.2121C93.3005 49.9661 93.2474 49.705 93.2512 49.4423C93.2476 49.1778 93.2995 48.9151 93.4044 48.6666C93.5023 48.4467 93.6519 48.2466 93.8436 48.079C94.0379 47.912 94.2696 47.7811 94.5245 47.6941C94.8161 47.5994 95.1255 47.5526 95.437 47.556C95.5955 47.5558 95.7538 47.5666 95.9103 47.5883C96.0486 47.6077 96.1844 47.6392 96.3154 47.6823C96.4345 47.7209 96.5486 47.7701 96.6559 47.8292C96.7602 47.8872 96.8593 47.952 96.9521 48.0231L96.7887 48.2523C96.7759 48.2732 96.7568 48.2908 96.7334 48.3032C96.7101 48.3156 96.6833 48.3224 96.6559 48.3228C96.6182 48.3218 96.5816 48.3116 96.5503 48.2934C96.4993 48.2699 96.4448 48.2406 96.3835 48.2053C96.3111 48.1661 96.2348 48.1327 96.1554 48.1054C96.0539 48.0703 95.9491 48.0427 95.8422 48.0231C95.6996 48.0005 95.5548 47.9896 95.4098 47.9908C95.1851 47.9887 94.9621 48.0236 94.7527 48.0936C94.5632 48.1592 94.3924 48.2595 94.2522 48.3875C94.1111 48.5209 94.0033 48.6779 93.9355 48.8488C93.7834 49.2506 93.7834 49.6838 93.9355 50.0857C94.01 50.2602 94.126 50.4194 94.276 50.5529C94.4156 50.6802 94.5851 50.7804 94.7731 50.8467C94.9896 50.9108 95.219 50.9359 95.4472 50.9202Z" fill="#8E8F99"/>
<path id="Vector_11" d="M100.874 50.8611H102.733V51.2842H100.306V47.5736H100.888L100.874 50.8611Z" fill="#8E8F99"/>
<path id="Vector_12" d="M104.667 51.2842H104.085V47.5736H104.667V51.2842Z" fill="#8E8F99"/>
<path id="Vector_13" d="M106.833 47.5913C106.867 47.6083 106.897 47.6313 106.921 47.6589L109.41 50.4559C109.406 50.4119 109.406 50.3677 109.41 50.3237C109.41 50.2826 109.41 50.2414 109.41 50.2032V47.559H109.917V51.2845H109.624C109.581 51.2875 109.537 51.2804 109.498 51.2639C109.463 51.2454 109.432 51.2215 109.406 51.1934L106.921 48.3993C106.921 48.4433 106.921 48.4845 106.921 48.5256C106.921 48.5667 106.921 48.6049 106.921 48.6402V51.2845H106.434V47.5737H106.737C106.77 47.5737 106.803 47.5797 106.833 47.5913Z" fill="#8E8F99"/>
<path id="Vector_14" d="M114.204 47.5736V47.982H112.14V49.2071H113.812V49.6008H112.14V50.8671H114.204V51.2754H111.541V47.5736H114.204Z" fill="#8E8F99"/>
<path id="Vector_15" d="M53.1952 24.6587L79.047 30.9927V53.1883L53.1952 46.8572V24.6587ZM51.5371 22.7667V47.9354L80.7017 55.0832V29.9175L51.5371 22.7667Z" fill="#8E8F99"/>
<path id="Vector_16" d="M67.168 66.7667L38 59.6129V34.4469L67.168 41.5977V66.7667Z" fill="#8E8F99"/>
<path id="Vector_17" d="M52.0205 24.3737L77.5352 30.6283L66.6845 39.9941L41.1664 33.7365L52.0205 24.3737ZM51.537 22.7667L38 34.4475L67.168 41.5981L80.7016 29.9174L51.537 22.7667Z" fill="#8E8F99"/>
<path id="Vector_18" d="M68.8091 65.3509L80.7016 55.0863L68.8091 52.1691V65.3509Z" fill="#8E8F99"/>
</g>
</g>
</g>
</g>
</svg>

<svg xmlns="http://www.w3.org/2000/svg" width="168" height="88" fill="none"><rect width="167" height="87" x=".5" y=".5" stroke="#8E8F99" rx="3.5"/><g fill="#8E8F99"><path d="M85.53 43.443a2.952 2.952 0 0 1-.607-1.992v-2.888c0-.885.201-1.558.603-2.018.402-.46 1.092-.69 2.07-.688.92 0 1.572.196 1.958.588.42.5.625 1.111.578 1.727v.68h-1.644v-.688c.006-.225-.01-.45-.048-.673a.651.651 0 0 0-.234-.4.951.951 0 0 0-.596-.155 1.007 1.007 0 0 0-.627.164.77.77 0 0 0-.272.44 3.342 3.342 0 0 0-.065.715v3.505a1.79 1.79 0 0 0 .211.984.772.772 0 0 0 .328.239c.133.051.28.07.425.055.21.015.42-.042.582-.159a.706.706 0 0 0 .245-.426c.038-.232.056-.467.051-.702v-.711h1.644v.65a2.644 2.644 0 0 1-.568 1.815c-.378.429-1.021.643-1.968.643-.947 0-1.662-.229-2.067-.705ZM92.376 43.473c-.415-.45-.623-1.105-.623-1.972v-3.038c0-.858.208-1.507.623-1.948.416-.44 1.11-.66 2.084-.658.967 0 1.658.22 2.073.658.416.441.627 1.09.627 1.948v3.038c0 .858-.211 1.516-.633 1.969-.422.452-1.11.678-2.067.678-.957 0-1.665-.229-2.084-.675Zm2.85-.729c.149-.282.217-.59.198-.899v-3.72a1.651 1.651 0 0 0-.195-.88.776.776 0 0 0-.335-.243.907.907 0 0 0-.434-.052.92.92 0 0 0-.435.052.788.788 0 0 0-.338.242c-.15.275-.217.578-.197.882v3.737c-.021.309.047.617.197.899.096.094.214.17.347.222a1.161 1.161 0 0 0 .845 0c.133-.052.251-.128.347-.222v-.018ZM99.138 35.946h1.77l1.332 5.605 1.361-5.605h1.723l.174 8.09h-1.274l-.136-5.622-1.314 5.622h-1.021l-1.362-5.643-.126 5.643h-1.287l.16-8.09ZM107.483 35.946h2.758c1.589 0 2.383.766 2.383 2.297 0 1.467-.836 2.2-2.509 2.198h-.94v3.595h-1.702l.01-8.09Zm2.356 3.458c.168.018.339.005.501-.04.161-.043.31-.117.435-.216.195-.273.282-.594.245-.914a2.533 2.533 0 0 0-.081-.734.599.599 0 0 0-.126-.222.693.693 0 0 0-.215-.163 1.76 1.76 0 0 0-.759-.129h-.661v2.418h.661ZM115.079 35.946h1.828l1.876 8.09h-1.587l-.371-1.865h-1.631l-.381 1.865h-1.61l1.876-8.09Zm1.562 5.288-.636-3.396-.637 3.396h1.273ZM120.298 35.946h1.192l2.281 4.615v-4.615h1.413v8.09h-1.134l-2.295-4.817v4.817h-1.46l.003-8.09ZM128.493 40.952l-1.896-4.995h1.597l1.157 3.208 1.086-3.208H132l-1.873 4.995v3.084h-1.634v-3.084ZM88.158 47.574v.423h-1.39v3.287h-.581v-3.287H84.79v-.423h3.367ZM92.512 51.284h-.45a.2.2 0 0 1-.125-.035.193.193 0 0 1-.075-.085l-.402-.881h-1.927l-.401.881a.244.244 0 0 1-.062.1.207.207 0 0 1-.126.035h-.45l1.703-3.71h.593l1.722 3.695Zm-2.819-1.377H91.3l-.68-1.51a2.703 2.703 0 0 1-.127-.35l-.064.197-.062.156-.674 1.507ZM95.447 50.92c.107.005.214.005.32 0 .092-.008.183-.023.273-.044.083-.018.165-.04.245-.067.075-.027.15-.06.228-.092v-.834h-.681a.143.143 0 0 1-.05-.006.128.128 0 0 1-.042-.023.086.086 0 0 1-.026-.03.075.075 0 0 1-.008-.038v-.285h1.321v1.422a2.57 2.57 0 0 1-.718.303c-.14.035-.282.06-.426.076a5.152 5.152 0 0 1-.497.024 2.596 2.596 0 0 1-.858-.139 2.094 2.094 0 0 1-.681-.387 1.794 1.794 0 0 1-.44-.588 1.854 1.854 0 0 1-.156-.77 1.923 1.923 0 0 1 .153-.775c.098-.22.248-.42.44-.588.194-.167.426-.298.68-.385.292-.095.602-.141.913-.138.159 0 .317.01.473.032.139.02.274.051.405.094.12.039.234.088.34.147.105.058.204.123.297.194l-.163.23a.143.143 0 0 1-.056.05.17.17 0 0 1-.077.02.222.222 0 0 1-.106-.03 2.103 2.103 0 0 1-.166-.088 1.51 1.51 0 0 0-.229-.1 2.14 2.14 0 0 0-.313-.082 2.625 2.625 0 0 0-.432-.032 2.017 2.017 0 0 0-.657.103 1.44 1.44 0 0 0-.5.294c-.142.133-.25.29-.317.46a1.733 1.733 0 0 0 0 1.238c.074.174.19.333.34.467.14.127.31.227.497.294.217.064.446.089.674.073ZM100.874 50.861h1.859v.423h-2.427v-3.71h.582l-.014 3.287ZM104.667 51.284h-.582v-3.71h.582v3.71ZM106.833 47.591c.034.017.064.04.088.068l2.489 2.797a.73.73 0 0 1 0-.132v-2.765h.507v3.726h-.293a.277.277 0 0 1-.126-.021.344.344 0 0 1-.092-.07l-2.485-2.795v2.886h-.487v-3.711h.303c.033 0 .066.006.096.017ZM114.204 47.574v.408h-2.064v1.225h1.672v.394h-1.672v1.266h2.064v.408h-2.663v-3.701h2.663ZM53.195 24.659l25.852 6.334v22.195l-25.852-6.33v-22.2Zm-1.658-1.892v25.168l29.165 7.148V29.918l-29.165-7.151Z"/><path d="M67.168 66.767 38 59.613V34.447l29.168 7.15v25.17Z"/><path d="m52.02 24.374 25.515 6.254-10.85 9.366-25.519-6.258 10.855-9.362Zm-.483-1.607L38 34.447l29.168 7.151 13.534-11.68-29.165-7.151ZM68.81 65.35l11.892-10.264-11.893-2.917v13.182Z"/></g></svg>
